src/images/pages/resources/asset-index.svg

<svg xmlns="http://www.w3.org/2000/svg" viewBox="0 0 200 200"><path fill="#F3F2F2" d="M1 1h198v198h-198z"/><path fill="#CDCCCB" d="M198 2v196h-196v-196h196m2-2h-200v200h200v-200z"/><g stroke="#CDCCCB" stroke-width="2" fill="none"><path d="M25.961 200v-200M55.576 200v-200M85.192 200v-200M114.808 200v-200M144.423 200v-200M174.039 200v-200"/></g><g stroke="#CDCCCB" stroke-width="2" fill="none"><path d="M0 25.961h200M0 55.576h200M0 85.192h200M0 114.808h200M0 144.424h200M0 174.039h200"/></g><path fill="#232D61" d="M100 56.767c23.838 0 43.231 19.394 43.231 43.232 0 23.837-19.394 43.229-43.231 43.229s-43.231-19.393-43.231-43.229c0-23.838 19.393-43.232 43.231-43.232m0-6c-27.189 0-49.231 22.042-49.231 49.232s22.042 49.23 49.231 49.23c27.188 0 49.231-22.04 49.231-49.229s-22.043-49.233-49.231-49.233zM100 73.051c14.859 0 26.949 12.089 26.949 26.948 0 14.86-12.09 26.95-26.949 26.95-14.86 0-26.949-12.09-26.949-26.95 0-14.859 12.089-26.948 26.949-26.948m0-1c-15.435 0-27.949 12.513-27.949 27.948s12.514 27.95 27.949 27.95c15.436 0 27.949-12.516 27.949-27.95 0-15.436-12.513-27.948-27.949-27.948z"/><g stroke="#232D61" stroke-width="6" fill="none"><path d="M100 35.127v22.054M100 142.819v22.054"/></g><g stroke="#232D61" fill="none"><path stroke-width="6" d="M164.872 100.001h-22.053"/><path d="M141.708 100h-85.639M98.887 142.819v-85.638"/><path stroke-width="6" d="M57.181 100.001h-22.054"/></g><path stroke="#E78026" stroke-width="1.486" stroke-linecap="round" fill="none" d="M3.076 165.769l34.616-58.461 19.23 18.461 21.539-37.693 10.77 26.924 66.922-80.769 40.77 40"/></svg>

<svg xmlns="http://www.w3.org/2000/svg" viewBox="0 0 200 200"><path fill="#F3F2F2" d="M1 1h198v198H1z"/><path fill="#CDCCCB" d="M198 2v196H2V2h196m2-2H0v200h200V0z"/><path d="M25.96 200V0m29.616 200V0m29.616 200V0m29.616 200V0m29.615 200V0m29.616 200V0M0 25.96h200M0 55.577h200M0 85.192h200M0 114.808h200M0 144.424h200M0 174.04h200" stroke="#CDCCCB" stroke-width="2" fill="none"/><path fill="#232D61" d="M100 56.767c23.838 0 43.23 19.394 43.23 43.232 0 23.836-19.393 43.228-43.23 43.228s-43.23-19.393-43.23-43.23c0-23.837 19.392-43.23 43.23-43.23m0-6c-27.19 0-49.23 22.04-49.23 49.23s22.04 49.23 49.23 49.23c27.188 0 49.23-22.04 49.23-49.228S127.19 50.767 100 50.767zm0 22.283c14.86 0 26.95 12.09 26.95 26.95s-12.09 26.95-26.95 26.95S73.05 114.86 73.05 100 85.14 73.05 100 73.05m0-1c-15.435 0-27.95 12.514-27.95 27.95s12.515 27.95 27.95 27.95c15.436 0 27.95-12.517 27.95-27.95 0-15.437-12.514-27.95-27.95-27.95z"/><path d="M100 35.127V57.18m0 85.64v22.053" stroke="#232D61" stroke-width="6" fill="none"/><g stroke="#232D61" fill="none"><path stroke-width="6" d="M164.872 100H142.82"/><path d="M141.708 100h-85.64m42.82 42.82V57.18"/><path stroke-width="6" d="M57.18 100H35.128"/></g><path stroke="#E78026" stroke-width="1.486" stroke-linecap="round" fill="none" d="M3.076 165.77l34.616-58.462 19.23 18.46 21.54-37.692L89.23 115l66.92-80.77 40.77 40"/></svg>
